X:1
T:Minton, LM
T:Minton, LM
T:Anonymous, 1859
T:Public Domain Courtesy of the Cyber Hymnal™
C:Anonymous, 1859
Z:Public Domain
Z:Courtesy of the Cyber Hymnal™
%%score 1 ( 2 3 )
L:1/8
Q:1/2=103
M:6/4
K:G
V:1 treble 
V:2 bass 
V:3 bass 
V:1
 [B,D]6 | [DG]4 [DB]2 [DA]4 [DF]2 | [DG]4 [DA]2 [DB]4 [CA]2 | [B,G]4 [B,G]2 [CE]4 [CE]2 | %4
 [B,D]6 [B,G]6 | [DA]6 [DA]6 | [DB]4 [Dc]2 [Fd]4 [DA]2 | [DB]4 [Ec]2 [Fd]4 [Gd]2 | %8
 [Ge]4 [Gd]2 [DB]4 [Dd]2 | [Ec]6 [DA]6 | [B,G]6 |] %11
V:2
 [G,,G,]6 | [B,,G,]4 [G,,G,]2 [D,F,]4 [C,A,]2 | [B,,G,]4 [D,F,]2 G,4 [D,F,]2 | %3
 [E,G,]4 [E,G,]2 [C,G,]4 [C,G,]2 | [G,,G,]6 [E,G,]6 | [D,F,]6 [D,F,]6 | %6
 G,4 [E,G,]2 [D,A,]4 [D,F,]2 | G,4 [E,G,]2 [D,A,]4 [G,B,]2 | [G,C]4 [G,B,]2 G,4 [B,,G,]2 | %9
 [C,G,]6 [D,F,]6 | [G,,G,]6 |] %11
V:3
 x6 | x12 | x6 G,4 x2 | x12 | x12 | x12 | G,4 x8 | G,4 x8 | x6 G,4 x2 | x12 | x6 |] %11

